;FLAVOR:Marlin
;TIME:21575
;Filament used: 11.9238m
;Layer height: 0.1
;MINX:0
;MINY:0
;MINZ:0.3
;MAXX:208.05
;MAXY:135.948
;MAXZ:33.8
;TARGET_MACHINE.NAME:Unknown
;Generated with Cura_SteamEngine 5.10.2
M104 S200
M105
M109 S200
G28 ;Home
G1 Z15.0 F6000 ;Move the platform down 15mm
;Prime the extruder
G92 E0
G1 F200 E3
G92 E0
M82 ;absolute extrusion mode
G92 E0
G92 E0
G1 F1500 E-6.5
;LAYER_COUNT:336
;LAYER:0
M107
G0 F3600 X17.472 Y76.324 Z0.3
;TYPE:SKIRT
G1 F1500 E0
G1 F1800 X18.996 Y76.102 E0.07684
G1 X33.084 Y76.05 E0.77969
G1 X35.144 Y76.472 E0.8846
G1 X36.915 Y77.467 E0.98595
G1 X37.913 Y78.24 E1.04893
G1 X39.005 Y79.593 E1.13567
G1 X39.991 Y81.572 E1.24598
G1 X40.213 Y83.096 E1.32281
G1 X40.265 Y109.872 E2.65868
G1 X39.843 Y111.929 E2.76344
G1 X38.848 Y113.7 E2.86478
G1 X38.075 Y114.698 E2.92776
G1 X36.722 Y115.79 E3.01451
G1 X34.743 Y116.776 E3.12481
G1 X33.219 Y116.998 E3.20165
G1 X19.066 Y117.05 E3.90775
G1 X17.034 Y116.61 E4.01148
G1 X15.238 Y115.592 E4.11447
G1 X14.296 Y114.857 E4.17408
G1 X13.21 Y113.507 E4.26052
G1 X12.224 Y111.529 E4.37079
G1 X12.002 Y110.004 E4.44767
G1 X11.95 Y83.228 E5.78353
G1 X12.372 Y81.171 E5.88829
G1 X13.367 Y79.4 E5.98964
G1 X14.14 Y78.402 E6.05262
G1 X15.493 Y77.31 E6.13936
G1 X17.472 Y76.324 E6.24967
G0 F3600 X17.592 Y76.711
G1 F1800 X19.054 Y76.498 E6.32338
G1 X33.044 Y76.45 E7.02135
G1 X35.003 Y76.852 E7.12112
G1 X36.67 Y77.783 E7.21638
G1 X37.632 Y78.528 E7.27708
G1 X38.666 Y79.81 E7.35925
G1 X39.604 Y81.692 E7.46416
G1 X39.817 Y83.154 E7.53787
G1 X39.865 Y109.831 E8.86879
G1 X39.463 Y111.788 E8.96847
G1 X38.532 Y113.455 E9.06373
G1 X37.787 Y114.417 E9.12443
G1 X36.505 Y115.451 E9.2066
G1 X34.623 Y116.389 E9.31151
G1 X33.161 Y116.602 E9.38522
G1 X19.109 Y116.65 E10.08628
G1 X17.176 Y116.231 E10.18496
G1 X15.484 Y115.277 E10.28186
G1 X14.581 Y114.572 E10.33902
G1 X13.549 Y113.289 E10.42117
G1 X12.611 Y111.408 E10.52603
G1 X12.398 Y109.946 E10.59974
G1 X12.35 Y83.269 E11.93066
G1 X12.752 Y81.312 E12.03034
G1 X13.683 Y79.645 E12.1256
G1 X14.428 Y78.683 E12.1863
G1 X15.71 Y77.649 E12.26847
G1 X17.592 Y76.711 E12.37338
G0 F3600 X17.712 Y77.098
G1 F1800 X19.112 Y76.894 E12.44396
G1 X33.003 Y76.85 E13.13699
G1 X34.862 Y77.232 E13.23167
G1 X36.425 Y78.099 E13.32085
G1 X37.351 Y78.816 E13.37927
G1 X38.327 Y80.027 E13.45687
G1 X39.217 Y81.812 E13.55638
G1 X39.421 Y83.212 E13.62696
G1 X39.465 Y109.789 E14.9529
G1 X39.083 Y111.647 E15.04753
G1 X38.216 Y113.21 E15.13671
G1 X37.499 Y114.136 E15.19513
G1 X36.288 Y115.112 E15.27273
G1 X34.503 Y116.002 E15.37224
G1 X33.103 Y116.206 E15.44282
G1 X19.152 Y116.25 E16.13885
G1 X17.319 Y115.853 E16.23241
G1 X15.681 Y114.929 E16.32624
G1 X14.867 Y114.288 E16.37793
G1 X13.886 Y113.069 E16.45599
G1 X12.998 Y111.288 E16.55528
G1 X12.794 Y109.888 E16.62586
G1 X12.75 Y83.311 E17.9518
G1 X13.132 Y81.453 E18.04643
G1 X13.999 Y79.89 E18.13561
G1 X14.716 Y78.964 E18.19403
G1 X15.927 Y77.988 E18.27163
G1 X17.712 Y77.098 E18.37114
G0 F3600 X17.832 Y77.485
G1 F1800 X19.17 Y77.29 E18.4386
G1 X32.962 Y77.25 E19.12669
G1 X34.722 Y77.612 E19.21633
G1 X36.231 Y78.449 E19.30242
G1 X37.067 Y79.101 E19.35531
G1 X37.99 Y80.247 E19.42873
G1 X38.83 Y81.932 E19.52266
G1 X39.025 Y83.27 E19.59012
G1 X39.065 Y109.747 E20.91106
G1 X38.703 Y111.507 E21.00071
G1 X37.866 Y113.016 E21.0868
G1 X37.214 Y113.852 E21.13969
G1 X36.068 Y114.775 E21.2131
G1 X34.383 Y115.615 E21.30703
G1 X33.045 Y115.81 E21.37449
G1 X19.195 Y115.85 E22.06547
G1 X17.463 Y115.475 E22.15389
G1 X15.929 Y114.615 E22.24162
G1 X15.149 Y114 E22.29118
G1 X14.225 Y112.853 E22.36466
G1 X13.385 Y111.168 E22.45859
G1 X13.19 Y109.83 E22.52605
G1 X13.15 Y83.353 E23.847
G1 X13.512 Y81.593 E23.93664
G1 X14.349 Y80.084 E24.02273
G1 X15.001 Y79.248 E24.07562
G1 X16.147 Y78.325 E24.14904
G1 X17.832 Y77.485 E24.24297
G0 F3600 X17.952 Y77.872
G1 F1800 X19.228 Y77.686 E24.3073
G1 X32.92 Y77.65 E24.9904
G1 X34.582 Y77.992 E25.07505
G1 X36.037 Y78.799 E25.15806
G1 X36.782 Y79.385 E25.20535
G1 X37.653 Y80.467 E25.27465
G1 X38.443 Y82.052 E25.363
G1 X38.629 Y83.328 E25.42734
G1 X38.665 Y109.705 E26.74329
G1 X38.323 Y111.367 E26.82795
G1 X37.516 Y112.822 E26.91095
G1 X36.93 Y113.567 E26.95824
G1 X35.848 Y114.438 E27.02754
G1 X34.263 Y115.228 E27.11589
G1 X32.987 Y115.414 E27.18023
G1 X19.238 Y115.45 E27.86617
G1 X17.605 Y115.096 E27.94953
G1 X16.177 Y114.301 E28.03107
G1 X15.433 Y113.715 E28.07832
G1 X14.562 Y112.633 E28.14762
G1 X13.772 Y111.048 E28.23597
G1 X13.586 Y109.772 E28.30031
G1 X13.55 Y83.395 E29.61626
G1 X13.892 Y81.733 E29.70092
G1 X14.699 Y80.278 E29.78392
G1 X15.285 Y79.533 E29.83121
G1 X16.367 Y78.662 E29.90051
G1 X17.952 Y77.872 E29.98886
G0 F3600 X18.073 Y78.259
G1 F1800 X19.286 Y78.082 E30.05002
G1 X32.878 Y78.05 E30.72813
G1 X34.442 Y78.372 E30.8078
G1 X35.843 Y79.149 E30.88772
G1 X36.497 Y79.67 E30.92944
G1 X37.314 Y80.685 E30.99444
G1 X38.056 Y82.173 E31.0774
G1 X38.233 Y83.386 E31.13856
G1 X38.265 Y109.663 E32.44952
G1 X37.943 Y111.227 E32.52919
G1 X37.166 Y112.628 E32.60911
G1 X36.645 Y113.282 E32.65083
G1 X35.63 Y114.099 E32.71583
G1 X34.142 Y114.841 E32.79879
G1 X32.929 Y115.018 E32.85995
G1 X19.281 Y115.05 E33.54085
G1 X17.75 Y114.718 E33.61901
G1 X16.372 Y113.951 E33.69769
G1 X15.718 Y113.43 E33.7394
G1 X14.901 Y112.415 E33.80441
G1 X14.159 Y110.927 E33.88736
G1 X13.982 Y109.714 E33.94852
G1 X13.95 Y83.437 E35.25949
G1 X14.272 Y81.873 E35.33915
G1 X15.049 Y80.472 E35.41908
G1 X15.57 Y79.818 E35.46079
G1 X16.585 Y79.001 E35.5258
G1 X18.073 Y78.259 E35.60875
G0 F3600 X18.193 Y78.646
G1 F1800 X19.344 Y78.478 E35.66679
G1 X32.836 Y78.45 E36.33991
G1 X34.303 Y78.752 E36.41463
G1 X35.594 Y79.462 E36.48814
G1 X36.211 Y79.954 E36.52751
G1 X36.977 Y80.905 E36.58843
G1 X37.669 Y82.293 E36.6658
G1 X37.837 Y83.444 E36.72384
G1 X37.865 Y109.621 E38.02981
G1 X37.563 Y111.088 E38.10454
G1 X36.853 Y112.379 E38.17804
G1 X36.361 Y112.996 E38.21741
G1 X35.41 Y113.762 E38.27834
G1 X34.022 Y114.454 E38.35571
G1 X32.871 Y114.622 E38.41374
G1 X19.324 Y114.65 E39.08961
G1 X17.891 Y114.339 E39.16277
G1 X16.621 Y113.638 E39.23514
G1 X16.004 Y113.146 E39.27451
G1 X15.238 Y112.195 E39.33543
G1 X14.546 Y110.807 E39.41281
G1 X14.378 Y109.656 E39.47084
G1 X14.35 Y83.479 E40.77682
G1 X14.652 Y82.012 E40.85154
G1 X15.362 Y80.721 E40.92505
G1 X15.854 Y80.104 E40.96442
G1 X16.805 Y79.338 E41.02534
G1 X18.193 Y78.646 E41.10272
G0 F3600 X18.313 Y79.033
G1 F1800 X19.402 Y78.874 E41.15762
G1 X32.794 Y78.85 E41.82575
G1 X34.165 Y79.132 E41.89558
G1 X35.345 Y79.775 E41.96263
G1 X35.928 Y80.24 E41.99983
G1 X36.638 Y81.121 E42.05628
G1 X37.282 Y82.413 E42.1283
G1 X37.441 Y83.502 E42.18321
G1 X37.465 Y109.579 E43.4842
G1 X37.183 Y110.95 E43.55403
G1 X36.54 Y112.13 E43.62107
G1 X36.075 Y112.713 E43.65828
G1 X35.194 Y113.423 E43.71473
G1 X33.902 Y114.067 E43.78675
G1 X32.813 Y114.226 E43.84166
G1 X19.367 Y114.25 E44.51248
G1 X18.033 Y113.96 E44.58059
G1 X16.87 Y113.325 E44.6467
G1 X16.287 Y112.86 E44.6839
G1 X15.577 Y111.979 E44.74035
G1 X14.933 Y110.687 E44.81237
G1 X14.774 Y109.598 E44.86728
G1 X14.75 Y83.521 E46.16827
G1 X15.032 Y82.15 E46.2381
G1 X15.675 Y80.97 E46.30514
G1 X16.14 Y80.387 E46.34235
G1 X17.021 Y79.677 E46.3988
G1 X18.313 Y79.033 E46.47082
G0 F3600 X18.433 Y79.42
G1 F1800 X19.46 Y79.27 E46.5226
G1 X32.752 Y79.25 E47.18574
G1 X34.027 Y79.512 E47.25068
G1 X35.096 Y80.088 E47.31126
G1 X35.643 Y80.524 E47.34616
G1 X36.301 Y81.341 E47.3985
G1 X36.895 Y82.533 E47.46494
G1 X37.045 Y83.56 E47.51672
G1 X37.065 Y109.537 E48.81272
G1 X36.803 Y110.812 E48.87766
G1 X36.227 Y111.881 E48.93824
G1 X35.791 Y112.428 E48.97314
G1 X34.974 Y113.086 E49.02547
G1 X33.782 Y113.68 E49.09192
G1 X32.755 Y113.83 E49.1437
G1 X19.41 Y113.85 E49.80948
G1 X18.174 Y113.581 E49.87259
G1 X17.119 Y113.012 E49.93239
G1 X16.572 Y112.576 E49.96729
G1 X15.914 Y111.759 E50.01963
G1 X15.32 Y110.567 E50.08607
G1 X15.17 Y109.54 E50.13785
G1 X15.15 Y83.563 E51.43385
G1 X15.412 Y82.288 E51.49879
G1 X15.988 Y81.219 E51.55937
G1 X16.424 Y80.672 E51.59427
G1 X17.241 Y80.014 E51.64661
G1 X18.433 Y79.42 E51.71305
G0 F3600 X18.553 Y79.807
G1 F1800 X19.518 Y79.666 E51.76171
G1 X32.711 Y79.65 E52.41991
G1 X33.889 Y79.892 E52.47991
G1 X34.906 Y80.44 E52.53754
G1 X35.356 Y80.806 E52.56648
G1 X35.964 Y81.561 E52.61484
G1 X36.508 Y82.653 E52.67571
G1 X36.649 Y83.618 E52.72436
G1 X36.665 Y109.496 E54.01542
G1 X36.423 Y110.674 E54.07542
G1 X35.875 Y111.691 E54.13306
G1 X35.509 Y112.141 E54.16199
G1 X34.754 Y112.749 E54.21036
G1 X33.662 Y113.293 E54.27122
G1 X32.697 Y113.434 E54.31988
G1 X19.453 Y113.45 E54.98062
G1 X18.314 Y113.202 E55.03878
G1 X17.309 Y112.66 E55.09575
G1 X16.859 Y112.294 E55.12469
G1 X16.251 Y111.539 E55.17305
G1 X15.707 Y110.447 E55.23391
G1 X15.566 Y109.482 E55.28257
G1 X15.55 Y83.604 E56.57363
G1 X15.792 Y82.426 E56.63363
G1 X16.34 Y81.409 E56.69126
G1 X16.706 Y80.959 E56.7202
G1 X17.461 Y80.351 E56.76856
G1 X18.553 Y79.807 E56.82943
G0 F3600 X18.673 Y80.194
G1 F1800 X19.576 Y80.062 E56.87496
G1 X32.67 Y80.05 E57.52822
G1 X33.751 Y80.272 E57.58328
G1 X34.659 Y80.755 E57.63459
G1 X35.044 Y81.057 E57.659
G1 X35.627 Y81.781 E57.70538
G1 X36.121 Y82.773 E57.76066
G1 X36.253 Y83.676 E57.80619
G1 X36.265 Y109.455 E59.09231
G1 X36.043 Y110.536 E59.14737
G1 X35.56 Y111.444 E59.19868
G1 X35.258 Y111.829 E59.22309
G1 X34.534 Y112.412 E59.26947
G1 X33.542 Y112.906 E59.32476
G1 X32.639 Y113.038 E59.37029
G1 X19.496 Y113.05 E60.02599
G1 X18.454 Y112.823 E60.0792
G1 X17.556 Y112.345 E60.12995
G1 X17.171 Y112.043 E60.15436
G1 X16.588 Y111.319 E60.20074
G1 X16.094 Y110.327 E60.25603
G1 X15.962 Y109.424 E60.30156
G1 X15.95 Y83.645 E61.58768
G1 X16.172 Y82.564 E61.64273
G1 X16.655 Y81.656 E61.69404
G1 X16.957 Y81.271 E61.71846
G1 X17.681 Y80.688 E61.76483
G1 X18.673 Y80.194 E61.82012
G0 F3600 X18.793 Y80.581
G1 F1800 X19.634 Y80.458 E61.86252
G1 X32.629 Y80.45 E62.51085
G1 X33.615 Y80.652 E62.56106
G1 X34.42 Y81.076 E62.60645
G1 X34.732 Y81.308 E62.62585
G1 X35.29 Y82.001 E62.67024
G1 X35.734 Y82.893 E62.71995
G1 X35.857 Y83.734 E62.76235
G1 X35.865 Y109.414 E64.04353
G1 X35.663 Y110.4 E64.09375
G1 X35.239 Y111.205 E64.13914
G1 X35.007 Y111.517 E64.15854
G1 X34.314 Y112.075 E64.20292
G1 X33.422 Y112.519 E64.25263
G1 X32.581 Y112.642 E64.29504
G1 X19.539 Y112.65 E64.94571
G1 X18.592 Y112.444 E64.99406
G1 X17.795 Y112.024 E65.039
G1 X17.483 Y111.792 E65.0584
G1 X16.925 Y111.099 E65.10279
G1 X16.481 Y110.207 E65.1525
G1 X16.358 Y109.366 E65.1949
G1 X16.35 Y83.686 E66.47608
G1 X16.552 Y82.7 E66.5263
G1 X16.976 Y81.895 E66.57169
G1 X17.208 Y81.583 E66.59109
G1 X17.901 Y81.025 E66.63548
G1 X18.793 Y80.581 E66.68519
G0 F3600 X18.913 Y80.968
G1 F1800 X19.692 Y80.854 E66.72446
G1 X32.588 Y80.85 E67.36785
G1 X33.478 Y81.032 E67.41317
G1 X34.233 Y81.43 E67.45575
G1 X34.453 Y81.599 E67.46959
G1 X34.951 Y82.217 E67.50919
G1 X35.347 Y83.013 E67.55354
G1 X35.461 Y83.792 E67.59282
G1 X35.465 Y109.373 E68.86906
G1 X35.283 Y110.263 E68.91438
G1 X34.885 Y111.018 E68.95696
G1 X34.716 Y111.238 E68.9708
G1 X34.098 Y111.736 E69.0104
G1 X33.302 Y112.132 E69.05476
G1 X32.523 Y112.246 E69.09404
G1 X19.583 Y112.25 E69.73961
G1 X18.729 Y112.064 E69.78322
G1 X17.981 Y111.67 E69.8254
G1 X17.762 Y111.501 E69.8392
G1 X17.264 Y110.883 E69.8788
G1 X16.868 Y110.087 E69.92315
G1 X16.754 Y109.308 E69.96243
G1 X16.75 Y83.727 E71.23867
G1 X16.932 Y82.837 E71.28399
G1 X17.33 Y82.082 E71.32657
G1 X17.499 Y81.862 E71.34041
G1 X18.117 Y81.364 E71.38001
G1 X18.913 Y80.968 E71.42437
G0 F3600 X19.033 Y81.355
G1 F1800 X19.75 Y81.25 E71.46052
G1 X32.547 Y81.25 E72.09896
G1 X33.343 Y81.413 E72.1395
G1 X34.047 Y81.784 E72.1792
G1 X34.172 Y81.887 E72.18728
G1 X34.612 Y82.433 E72.22227
G1 X34.96 Y83.133 E72.26127
G1 X35.065 Y83.85 E72.29742
G1 X35.065 Y109.332 E73.56872
G1 X34.902 Y110.128 E73.60926
G1 X34.531 Y110.832 E73.64896
G1 X34.428 Y110.957 E73.65704
G1 X33.882 Y111.397 E73.69202
G1 X33.182 Y111.745 E73.73103
G1 X32.465 Y111.85 E73.76718
G1 X19.627 Y111.85 E74.40767
G1 X18.868 Y111.685 E74.44642
G1 X18.168 Y111.316 E74.4859
G1 X18.043 Y111.213 E74.49398
G1 X17.603 Y110.667 E74.52896
G1 X17.255 Y109.967 E74.56796
G1 X17.15 Y109.25 E74.60412
G1 X17.15 Y83.768 E75.87542
G1 X17.313 Y82.972 E75.91596
G1 X17.684 Y82.268 E75.95566
G1 X17.787 Y82.143 E75.96374
G1 X18.333 Y81.703 E75.99872
G1 X19.033 Y81.355 E76.03772
G0 F3600 X19.155 Y81.741
G1 F1800 X19.75 Y81.65 E76.06775
G1 X32.506 Y81.65 E76.70415
G1 X33.208 Y81.794 E76.7399
G1 X33.861 Y82.138 E76.77673
G1 X34.273 Y82.649 E76.80947
G1 X34.574 Y83.255 E76.84323
G1 X34.665 Y83.85 E76.87326
G1 X34.665 Y109.291 E78.14252
G1 X34.521 Y109.993 E78.17827
G1 X34.177 Y110.646 E78.21509
G1 X33.666 Y111.058 E78.24784
G1 X33.06 Y111.359 E78.2816
G1 X32.465 Y111.45 E78.31163
G1 X19.671 Y111.45 E78.94992
G1 X19.005 Y111.305 E78.98393
G1 X18.354 Y110.962 E79.02064
G1 X17.942 Y110.451 E79.05339
G1 X17.641 Y109.845 E79.08715
G1 X17.55 Y109.25 E79.11718
G1 X17.55 Y83.809 E80.38643
G1 X17.694 Y83.107 E80.42218
G1 X18.038 Y82.454 E80.45901
G1 X18.549 Y82.042 E80.49175
G1 X19.155 Y81.741 E80.52551
G0 F3600 X19.276 Y82.127
G1 F1800 X18.727 Y82.4 E80.5561
G1 X18.355 Y82.712 E80.58032
G1 X18.074 Y83.244 E80.61034
G1 X17.95 Y83.85 E80.6412
G1 X17.95 Y109.25 E81.90841
G1 X18.027 Y109.724 E81.93237
G1 X18.3 Y110.273 E81.96296
G1 X18.612 Y110.645 E81.98718
G1 X19.144 Y110.926 E82.0172
G1 X19.715 Y111.05 E82.04635
G1 X32.465 Y111.05 E82.68245
G1 X32.939 Y110.973 E82.70641
G1 X33.488 Y110.7 E82.737
G1 X33.86 Y110.388 E82.76122
G1 X34.141 Y109.856 E82.79124
G1 X34.265 Y109.25 E82.8221
G1 X34.265 Y83.85 E84.08931
G1 X34.188 Y83.376 E84.11326
G1 X33.915 Y82.827 E84.14385
G1 X33.603 Y82.455 E84.16808
G1 X33.071 Y82.174 E84.19809
G1 X32.465 Y82.05 E84.22895
G1 X19.75 Y82.05 E84.86331
G1 X19.276 Y82.127 E84.88726
G0 F3600 X19.399 Y82.512
G1 F1800 X18.905 Y82.758 E84.9148
G1 X18.673 Y82.967 E84.93038
G1 X18.428 Y83.431 E84.95655
G1 X18.35 Y83.85 E84.97782
G1 X18.35 Y109.25 E86.24503
G1 X18.412 Y109.601 E86.26281
G1 X18.658 Y110.095 E86.29034
G1 X18.867 Y110.327 E86.30592
G1 X19.331 Y110.572 E86.3321
G1 X19.75 Y110.65 E86.35336
G1 X32.465 Y110.65 E86.98772
G1 X32.816 Y110.588 E87.0055
G1 X33.31 Y110.342 E87.03303
G1 X33.542 Y110.133 E87.04861
G1 X33.787 Y109.669 E87.07479
G1 X33.865 Y109.25 E87.09605
G1 X33.865 Y83.85 E88.36326
G1 X33.803 Y83.499 E88.38104
G1 X33.557 Y83.005 E88.40858
G1 X33.348 Y82.773 E88.42416
G1 X32.884 Y82.528 E88.45033
G1 X32.465 Y82.45 E88.4716
G1 X19.75 Y82.45 E89.10595
G1 X19.399 Y82.512 E89.12373
G0 F3600 X19.477 Y82.904
G1 F1800 X19.75 Y82.85 E89.13762
G1 X32.465 Y82.85 E89.77197
G1 X32.803 Y82.92 E89.78919
G1 X33.066 Y83.057 E89.80399
G1 X33.205 Y83.195 E89.81376
G1 X33.411 Y83.577 E89.83541
G1 X33.465 Y83.85 E89.8493
G1 X33.465 Y109.25 E91.11651
G1 X33.395 Y109.588 E91.13373
G1 X33.258 Y109.851 E91.14852
G1 X33.12 Y109.99 E91.15829
G1 X32.738 Y110.196 E91.17995
G1 X32.465 Y110.25 E91.19383
G1 X19.75 Y110.25 E91.82818
G1 X19.412 Y110.18 E91.8454
G1 X19.149 Y110.043 E91.8602
G1 X19.01 Y109.905 E91.86997
G1 X18.804 Y109.523 E91.89162
G1 X18.75 Y109.25 E91.90551
G1 X18.75 Y83.85 E93.17272
G1 X18.82 Y83.512 E93.18994
G1 X18.957 Y83.249 E93.20473
G1 X19.095 Y83.11 E93.21451
G1 X19.477 Y82.904 E93.23616
G0 F3600 X19.75 Y83.65
G1 F1800 X19.589 Y83.731 E93.24515
G1 X19.55 Y83.85 E93.2514
G1 X19.55 Y109.25 E94.51861
G1 X19.631 Y109.411 E94.5276
G1 X19.75 Y109.45 E94.53385
G1 X32.465 Y109.45 E95.1682
G1 X32.626 Y109.369 E95.17719
G1 X32.665 Y109.25 E95.18344
G1 X32.665 Y83.85 E96.45065
G1 X32.584 Y83.689 E96.45964
